X: 2
T: Rip The Calico
R: reel
M: 4/4
L: 1/8
K: Gmaj
G4 G2BG|AGED AdBA|G4 G2BG|1AGEG D3A:|2AGGE D3E||:GE~E2 c2Bd|AGEG AdBA|GE~E2 c2Bd|1AGGE D3E:|2AGGE D4||d3B c3B|AGEG A3c|BddB c2Bd|AGGE D4|d3B c3B|AGEG A3c|Bddd edge|dcBc A2BA|


Tune 719	Setting 13791

